X: 502
T: Da huoji
L: 1/8
M: 2/4
K: G
G2E G [I:setbarnb 1]| 
A2A2 | 
d2A d | 
G ED2 | 
d g e d | 
c2d2 | 
A G E D | 
G4 |]

@@@ Tune index: 9376
